X: 140
%
U:~=!turn!
T: Donald MacGugan's Rant
C:
O:Scotland
B:Keith Norman MacDonald : "The Skye collection of the best reels & strathspeys extant" : 1887
Z:Ralph Palmer
R:Reel
M:C
L:1/8
K:D
A | {/c}d2 d>e d/2d/2d Td>c | BABc {/c}dAAB | {/c}d2 d>e d/2d/2d Td>c | BABc {/c}d2 d ::
A | {/c}d>BAF A/2A/2A A2 | {/f}gfed edBc | {/c}dBAF A/2A/2A TA2 | BABc {/c}d2 d :|


